X: 22904
T: Larkin's Beehive
R: reel
M: 4/4
K: Gmajor
|:BGBd edge|d2 BG AE E2|BG (3Bcd edge|dBAc BG G2|
BGBd edge|d2 BG AD D2|B2 GB ABGB|dBAc BG G2:|
|:BGBd eg g2|ea a2 gedB|GBdB eBdB|ABGB AD D2|
BGBd eg g2|ea a2 gedc|B2 GB ABGB|dBAc BG G2:|

